dist/images/quick-links-section/Funding for Your Business icon.svg

<svg width="54" height="37" viewBox="0 0 54 37" fill="none" xmlns="http://www.w3.org/2000/svg">
<g clip-path="url(#clip0_133_281)">
<path d="M50.312 29.5972H48.9621V2.43493C48.9647 1.79262 48.7108 1.17551 48.256 0.71901C47.8012 0.262513 47.1827 0.00392688 46.5362 -2.38419e-07H7.46209C6.81561 0.00392688 6.1971 0.262513 5.7423 0.71901C5.2875 1.17551 5.03356 1.79262 5.03621 2.43493V29.5972H3.68729C2.70977 29.6131 1.7777 30.0101 1.09208 30.7025C0.406459 31.3949 0.0222168 32.3273 0.0222168 33.2986C0.0222168 34.2699 0.406459 35.2023 1.09208 35.8948C1.7777 36.5872 2.70977 36.9841 3.68729 37H50.312C51.2895 36.9841 52.2216 36.5872 52.9072 35.8948C53.5928 35.2023 53.9771 34.2699 53.9771 33.2986C53.9771 32.3273 53.5928 31.3949 52.9072 30.7025C52.2216 30.0101 51.2895 29.6131 50.312 29.5972ZM6.51266 2.43493C6.5116 2.18352 6.61097 1.94196 6.78897 1.76326C6.96697 1.58456 7.20905 1.48331 7.46209 1.48174H46.5372C46.7902 1.48331 47.0323 1.58456 47.2103 1.76326C47.3883 1.94196 47.4877 2.18352 47.4866 2.43493V29.5972H6.51266V2.43493ZM35.5216 31.079C35.371 31.5095 35.0897 31.883 34.7164 32.1478C34.343 32.4127 33.8962 32.5559 33.4374 32.5577H20.5618C20.1034 32.5558 19.6568 32.4126 19.2837 32.148C18.9106 31.8833 18.6294 31.5101 18.4787 31.08L35.5216 31.079ZM50.312 35.5212H3.68729C3.0949 35.5212 2.52677 35.2874 2.10789 34.8713C1.68901 34.4551 1.45368 33.8906 1.45368 33.3021C1.45368 32.7135 1.68901 32.1491 2.10789 31.7329C2.52677 31.3167 3.0949 31.0829 3.68729 31.0829H16.9494C17.1163 31.9142 17.5669 32.6627 18.2251 33.2019C18.8833 33.7412 19.7087 34.0381 20.5618 34.0425H33.4374C34.2906 34.0383 35.1161 33.7414 35.7744 33.2021C36.4326 32.6629 36.8832 31.9143 37.0499 31.0829H50.312C50.9044 31.0829 51.4725 31.3167 51.8914 31.7329C52.3103 32.1491 52.5456 32.7135 52.5456 33.3021C52.5456 33.8906 52.3103 34.4551 51.8914 34.8713C51.4725 35.2874 50.9044 35.5212 50.312 35.5212Z" fill="#FCF9F7"/>
<path d="M45.501 26.9515V4.12948C45.5014 3.93331 45.4241 3.74485 45.2858 3.60488C45.2179 3.53626 45.137 3.48175 45.0477 3.44453C44.9584 3.40731 44.8626 3.38813 44.7657 3.38811H9.23331C9.13601 3.38876 9.03981 3.40846 8.95018 3.44608C8.86056 3.4837 8.77928 3.5385 8.71099 3.60736C8.64271 3.67621 8.58875 3.75777 8.55222 3.84736C8.51568 3.93695 8.49728 4.03282 8.49807 4.12948V26.9515C8.49674 27.1466 8.57343 27.3343 8.71129 27.4733C8.84914 27.6123 9.0369 27.6913 9.23331 27.6928H44.7667C44.8639 27.6921 44.96 27.6723 45.0495 27.6346C45.1391 27.5969 45.2202 27.5421 45.2884 27.4732C45.3566 27.4044 45.4104 27.3229 45.4469 27.2334C45.4834 27.1438 45.5018 27.048 45.501 26.9515ZM44.0275 26.2101H9.96755V4.86985H44.0275V26.2101Z" fill="#FCF9F7"/>
</g>
<defs>
<clipPath id="clip0_133_281">
<rect width="54" height="37" fill="white"/>
</clipPath>
</defs>
</svg>

<svg width="54" height="37" fill="none" xmlns="http://www.w3.org/2000/svg"><g clip-path="url(#a)" fill="#FCF9F7"><path d="M50.312 29.597h-1.35V2.435a2.417 2.417 0 0 0-.706-1.716A2.449 2.449 0 0 0 46.536 0H7.462a2.449 2.449 0 0 0-1.72.719 2.417 2.417 0 0 0-.706 1.716v27.162H3.687a3.738 3.738 0 0 0-2.595 1.105A3.69 3.69 0 0 0 .022 33.3a3.69 3.69 0 0 0 1.07 2.596A3.738 3.738 0 0 0 3.687 37h46.625a3.738 3.738 0 0 0 2.595-1.105 3.69 3.69 0 0 0 1.07-2.596 3.69 3.69 0 0 0-1.07-2.596 3.738 3.738 0 0 0-2.595-1.106ZM6.512 2.435a.946.946 0 0 1 .277-.672.959.959 0 0 1 .673-.281h39.075a.959.959 0 0 1 .673.281c.178.179.278.42.277.672v27.162H6.513V2.435Zm29.01 28.644c-.151.43-.432.804-.806 1.069-.373.265-.82.408-1.279.41H20.562a2.226 2.226 0 0 1-1.278-.41 2.203 2.203 0 0 1-.805-1.068l17.043-.001Zm14.79 4.442H3.687c-.592 0-1.16-.234-1.58-.65a2.212 2.212 0 0 1 0-3.138 2.24 2.24 0 0 1 1.58-.65H16.95c.167.831.618 1.58 1.276 2.119.658.54 1.484.836 2.337.84h12.875a3.717 3.717 0 0 0 2.337-.84 3.674 3.674 0 0 0 1.276-2.12h13.262c.592 0 1.16.235 1.58.65a2.212 2.212 0 0 1 0 3.14 2.25 2.25 0 0 1-1.58.65Z"/><path d="M45.501 26.951V4.13a.744.744 0 0 0-.453-.684.733.733 0 0 0-.282-.057H9.233a.744.744 0 0 0-.68.46.731.731 0 0 0-.055.281v22.822a.734.734 0 0 0 .213.522.743.743 0 0 0 .522.22h35.534a.742.742 0 0 0 .68-.46.731.731 0 0 0 .054-.282Zm-1.473-.74H9.968V4.87h34.06v21.34Z"/></g><defs><clipPath id="a"><path fill="#fff" d="M0 0h54v37H0z"/></clipPath></defs></svg>
